localPackages/DesignSystem/Sources/DesignSystem/Resources/Assets.xcassets/IconSet/ic-fire-slash.imageset/ic-fire-slash.svg

<svg width="24" height="24" viewBox="0 0 24 24" fill="none" xmlns="http://www.w3.org/2000/svg">
<g id="ic-fire-slash">
<path id="Icon" fill-rule="evenodd" clip-rule="evenodd" d="M6.11788 9.32646L7.15668 10.4085C6.5827 10.9557 6.12236 11.5986 5.79784 12.3033C5.4163 13.1317 5.23064 14.0276 5.2516 14.9281C5.27256 15.8287 5.49975 16.7163 5.91993 17.5285C6.34025 18.3409 6.94455 19.0601 7.69415 19.6319C8.44393 20.2039 9.31977 20.6136 10.2605 20.8283C11.2014 21.043 12.1807 21.0566 13.1279 20.8679C14.0751 20.6792 14.9634 20.2937 15.7307 19.7422C15.8069 19.6875 15.8817 19.6312 15.9551 19.5735L16.998 20.6599C16.8708 20.7638 16.7402 20.8639 16.6061 20.9603C15.6627 21.6384 14.5752 22.1091 13.4209 22.339C12.2666 22.5689 11.0737 22.5524 9.92681 22.2907C8.7799 22.0289 7.70707 21.5284 6.78437 20.8245C5.86167 20.1206 5.1117 19.2307 4.58766 18.2177C4.06361 17.2047 3.77832 16.0936 3.75201 14.963C3.72569 13.8325 3.959 12.7102 4.43538 11.6758C4.83973 10.7978 5.41079 10.0014 6.11788 9.32646ZM18.8648 18.4429L21.541 21.2306C21.8279 21.5294 21.8182 22.0042 21.5194 22.291C21.2206 22.5779 20.7458 22.5682 20.459 22.2694L2.45896 3.5194C2.1721 3.22059 2.18179 2.74582 2.4806 2.45896C2.77941 2.17211 3.25419 2.1818 3.54104 2.48061L8.08865 7.2177C8.41638 6.70527 8.67821 6.1533 8.86607 5.57345C9.13619 4.73964 9.24623 3.87016 9.19547 3.00664L9.19501 2.99897C9.18937 2.90469 9.18181 2.81049 9.17233 2.71642C9.14171 2.41256 9.09108 2.11004 9.02042 1.81066C8.99346 1.69642 8.97998 1.63931 8.99423 1.59811C9.00682 1.56173 9.03216 1.53225 9.06622 1.51435C9.10479 1.49407 9.16029 1.49862 9.27128 1.5077C9.50625 1.52694 9.73702 1.55383 9.96342 1.58808C10.1409 1.61494 10.3157 1.64631 10.4877 1.68207L10.5302 1.69101C14.4048 2.51502 16.8572 5.56923 16.8572 9.22719C16.8572 9.51976 16.8356 9.81005 16.7945 10.0966C16.5831 11.5694 15.8564 12.9438 14.8989 14.0229C14.8545 14.073 14.8095 14.1225 14.7641 14.1713L15.2026 14.628C15.2329 14.6083 15.2633 14.5881 15.294 14.5674C16.3179 13.8755 17.5008 12.6429 18.2564 10.4618C18.2911 10.3615 18.325 10.2591 18.3579 10.1546C18.4574 9.83896 18.548 9.50455 18.6283 9.15032C18.679 8.92708 18.7254 8.69597 18.7674 8.4567C18.7884 8.33733 18.8082 8.21593 18.8268 8.09247L18.8408 7.99816C18.8625 7.84857 18.8733 7.77377 18.9223 7.7366C18.9615 7.7068 19.0241 7.69858 19.0697 7.71722C19.1265 7.74047 19.1535 7.80338 19.2075 7.92921C19.2253 7.97075 19.2435 8.0141 19.2618 8.0592C19.2945 8.13928 19.328 8.22486 19.3619 8.31562C19.4446 8.53647 19.5302 8.78798 19.6141 9.0654C19.7177 9.40776 19.8188 9.78958 19.9088 10.2019C20.4113 12.5048 20.5678 15.7603 18.8803 18.4153C18.8751 18.4245 18.87 18.4337 18.8648 18.4429ZM16.256 15.7254C17.105 15.128 17.9978 14.2515 18.7466 12.9801C18.7834 14.4706 18.5341 15.9981 17.7878 17.321L16.256 15.7254ZM13.7236 13.0874C14.6999 12.0135 15.3572 10.6122 15.3572 9.22719C15.3572 6.47871 13.6384 4.0992 10.7064 3.27759C10.7216 4.20787 10.5835 5.13916 10.293 6.03575C10.0279 6.85425 9.64198 7.6246 9.15197 8.32533L13.7236 13.0874Z" fill="#0F0F0F"/>
</g>
</svg>

<svg xmlns="http://www.w3.org/2000/svg" width="24" height="24" viewBox="0 0 24 24">
  <g class="ic-fire-slash">
    <path fill-rule="evenodd" d="m6.118 9.326 1.039 1.082a6.209 6.209 0 0 0-1.36 1.895 5.938 5.938 0 0 0-.545 2.625c.02.9.248 1.788.668 2.6a6.28 6.28 0 0 0 1.774 2.104c.75.572 1.626.982 2.567 1.196a6.87 6.87 0 0 0 2.867.04 6.704 6.704 0 0 0 2.827-1.294l1.043 1.086a8.203 8.203 0 0 1-3.577 1.68 8.371 8.371 0 0 1-3.494-.05 8.183 8.183 0 0 1-3.143-1.465 7.78 7.78 0 0 1-2.196-2.607 7.456 7.456 0 0 1-.836-3.255 7.439 7.439 0 0 1 .683-3.287 7.707 7.707 0 0 1 1.683-2.35Zm12.747 9.117 2.676 2.788a.75.75 0 1 1-1.082 1.038l-18-18.75a.75.75 0 1 1 1.082-1.038l4.548 4.737a7.13 7.13 0 0 0 .777-1.645c.27-.833.38-1.703.33-2.566l-.001-.008a6.985 6.985 0 0 0-.175-1.188c-.027-.115-.04-.172-.026-.213a.149.149 0 0 1 .072-.084c.039-.02.094-.015.205-.006a10.182 10.182 0 0 1 1.217.174l.042.009c3.875.824 6.327 3.878 6.327 7.536a6 6 0 0 1-.063.87c-.21 1.472-.938 2.847-1.895 3.926a8.3 8.3 0 0 1-.135.148l.439.457.091-.06c1.024-.692 2.207-1.925 2.962-4.106a12.618 12.618 0 0 0 .372-1.311 14.279 14.279 0 0 0 .199-1.059l.014-.094c.021-.15.032-.224.081-.261a.16.16 0 0 1 .148-.02c.056.023.084.086.137.212a8.079 8.079 0 0 1 .155.387c.083.22.168.472.252.75.104.342.205.724.295 1.136.502 2.303.659 5.558-1.029 8.213l-.015.028Zm-2.609-2.718c.849-.597 1.742-1.473 2.49-2.745.037 1.49-.212 3.018-.958 4.341l-1.532-1.596Zm-2.532-2.638c.976-1.073 1.633-2.475 1.633-3.86 0-2.748-1.719-5.128-4.65-5.95a8.494 8.494 0 0 1-.414 2.759 8.642 8.642 0 0 1-1.141 2.29l4.572 4.761Z" class="Icon"/>
  </g>
</svg>
